X:1
T: Eileen Alanna
C:
R:Reel
Q: 232
K:G
M:4/4
L:1/8
|:((3def)|g2 g2 z2 GA|Bd cA Bd cA|g2 g2 z2 AB|cA BG AF ED|
g2 g2 z2 GA|Bd cA Bd cB|ag fa ge dc|BG AF G2:|
|:B2|Be ef gf eg|fb af gf ed|Be ef gf eg|fb af e3B|
e2 e2 z2 f2|g2 g2 z2 a2|ba bc' ba bc'|b4 B2:|
